assets/logo-tag.svg

<?xml version="1.0" encoding="UTF-8"?>
<svg width="218px" height="114px" viewBox="0 0 218 114" version="1.1" xmlns="http://www.w3.org/2000/svg" xmlns:xlink="http://www.w3.org/1999/xlink">
    <!-- Generator: Sketch 40.3 (33839) - http://www.bohemiancoding.com/sketch -->
    <title>logo-tag</title>
    <desc>Created with Sketch.</desc>
    <defs></defs>
    <g id="Page-1" stroke="none" stroke-width="1" fill="none" fill-rule="evenodd">
        <g id="logo-tag">
            <rect id="Rectangle-path" fill="#FFFFFF" x="0" y="0" width="218" height="114"></rect>
            <path d="M65,93.5 C65,94.3284271 64.3284271,95 63.5,95 L21.5,95 C20.6715729,95 20,94.3284271 20,93.5 L20,46.5 C20,45.6715729 20.6715729,45 21.5,45 L63.5,45 C64.3284271,45 65,45.6715729 65,46.5 L65,93.5 L65,93.5 Z M23,92 L62,92 L62,48 L23,48 L23,92 L23,92 Z" id="Shape" fill="#3FA3BA"></path>
            <g id="Group" transform="translate(26.000000, 56.000000)" fill="#3FA3BA">
                <path d="M16.7,3.6 C23.8797017,3.6 29.7,9.42029825 29.7,16.6 C29.7,23.7797017 23.8797017,29.6 16.7,29.6 C9.52029825,29.6 3.7,23.7797017 3.7,16.6 C3.7,9.42029825 9.52029825,3.6 16.7,3.6 L16.7,3.6 Z M16.7,0.6 L16.7,0.6 C7.863444,0.6 0.7,7.763444 0.7,16.6 L0.7,16.6 C0.7,25.436556 7.863444,32.6 16.7,32.6 L16.7,32.6 C25.536556,32.6 32.7,25.436556 32.7,16.6 L32.7,16.6 C32.7,7.763444 25.536556,0.6 16.7,0.6 L16.7,0.6 L16.7,0.6 Z" id="Shape"></path>
                <path d="M16.86,26 C11.7315593,25.9944885 7.57551149,21.8384407 7.57,16.71 C7.57,15.8815729 8.24157288,15.21 9.07,15.21 C9.89842712,15.21 10.57,15.8815729 10.57,16.71 C10.5755061,20.1815878 13.3884122,22.9944939 16.86,23 C17.6884271,23 18.36,23.6715729 18.36,24.5 C18.36,25.3284271 17.6884271,26 16.86,26 L16.86,26 Z" id="Shape"></path>
                <path d="M24.65,18.26 C23.8215729,18.26 23.15,17.5884271 23.15,16.76 C23.1444939,13.2884122 20.3315878,10.4755061 16.86,10.47 C16.0315729,10.47 15.36,9.79842712 15.36,8.97 C15.36,8.14157288 16.0315729,7.47 16.86,7.47 C21.9884407,7.47551149 26.1444885,11.6315593 26.15,16.76 C26.15,17.5884271 25.4784271,18.26 24.65,18.26 L24.65,18.26 Z" id="Shape"></path>
            </g>
            <path d="M35.06,54.92 L28.7,54.92 C27.8715729,54.92 27.2,54.2484271 27.2,53.42 C27.2,52.5915729 27.8715729,51.92 28.7,51.92 L35.06,51.92 C35.8884271,51.92 36.56,52.5915729 36.56,53.42 C36.56,54.2484271 35.8884271,54.92 35.06,54.92 L35.06,54.92 Z" id="Shape" fill="#3FA3BA"></path>
            <path d="M95.23,77.51 L98.9,57.61 C98.9423031,57.3217404 99.0880328,57.058716 99.31,56.87 C99.5107151,56.7165791 99.7574045,56.635524 100.01,56.64 L101.45,56.64 C101.884052,56.6453926 102.234607,56.9959483 102.24,57.43 L102.24,57.72 L97.78,80 C97.6921466,80.5098553 97.4942196,80.9944352 97.2,81.42 C96.895578,81.7479099 96.4552231,81.9144307 96.01,81.87 L94.58,81.87 C94.128353,81.9028639 93.6875552,81.7213589 93.39,81.38 C93.0829937,80.9682369 92.8619435,80.4989303 92.74,80 L89.43,68 L86.12,80 C85.9993182,80.502437 85.7782147,80.9752582 85.47,81.39 C85.1724448,81.7313589 84.731647,81.9128639 84.28,81.88 L82.84,81.88 C82.3947769,81.9244307 81.954422,81.7579099 81.65,81.43 C81.3574032,81.0009165 81.1628025,80.5127078 81.08,80 L76.65,57.71 L76.65,57.42 C76.6553926,56.9859483 77.0059483,56.6353926 77.44,56.63 L78.88,56.63 C79.1325955,56.625524 79.3792849,56.7065791 79.58,56.86 C79.8012542,57.0492989 79.9468246,57.3120358 79.99,57.6 L83.66,77.51 L87.66,63.25 C87.7186112,62.9898823 87.8425051,62.7489775 88.02,62.55 C88.2403619,62.3122433 88.5566301,62.1872071 88.88,62.21 L90,62.21 C90.3233699,62.1872071 90.6396381,62.3122433 90.86,62.55 C91.0371318,62.7492266 91.1609749,62.9900328 91.22,63.25 L95.23,77.51 Z" id="Shape" fill="#3FA3BA"></path>
            <path d="M116.2,70 L116.2,69.52 C116.252575,68.4745957 115.807574,67.4659268 115,66.8 C114.147125,66.1271841 113.08599,65.7734724 112,65.8 C111.21972,65.7597288 110.442872,65.9289092 109.75,66.29 C109.14908,66.6714819 108.629185,67.1675909 108.22,67.75 C108.101957,67.9229955 107.939643,68.0611351 107.75,68.15 C107.532724,68.2308449 107.301683,68.2682193 107.07,68.26 L106,68.26 C105.73766,68.2588954 105.486261,68.1547442 105.3,67.97 C105.105551,67.800177 105.005007,67.5469544 105.03,67.29 C105.144864,66.4815023 105.516459,65.7313026 106.09,65.15 C106.799681,64.3893024 107.666401,63.7921531 108.63,63.4 C109.698046,62.9437259 110.848601,62.7122533 112.01,62.72 C113.988994,62.6295924 115.927785,63.2985111 117.43,64.59 C118.859731,65.9537563 119.616838,67.877613 119.5,69.85 L119.5,80.85 C119.5,81.4022847 119.052285,81.85 118.5,81.85 L117.17,81.85 C116.617715,81.85 116.17,81.4022847 116.17,80.85 L116.17,79.39 C115.654372,80.3686701 114.774275,81.1050777 113.72,81.44 C112.534126,81.9325291 111.264054,82.1906187 109.98,82.2 C108.850791,82.2195932 107.731066,81.9908688 106.7,81.53 C105.808113,81.1411525 105.042654,80.5107743 104.49,79.71 C103.976416,78.9448253 103.707852,78.0414735 103.72,77.12 C103.645099,75.4658117 104.394024,73.881835 105.72,72.89 C107.310764,71.7725438 109.151073,71.0618275 111.08,70.82 L116.2,70 Z M116.2,72.88 L111.95,73.56 C110.671228,73.7054253 109.434013,74.1031017 108.31,74.73 C107.548302,75.1141167 107.051807,75.877954 107.01,76.73 C107.027541,77.3677066 107.33266,77.9632397 107.84,78.35 C108.566464,78.8844606 109.460834,79.1399949 110.36,79.07 C111.901423,79.136298 113.409146,78.6062672 114.57,77.59 C115.645852,76.6044908 116.237579,75.1982258 116.19,73.74 L116.19,72.84 L116.2,72.88 Z" id="Shape" fill="#3FA3BA"></path>
            <path d="M123.49,68.15 C123.481993,67.1918818 123.756794,66.2526891 124.28,65.45 C124.859544,64.5716516 125.67849,63.8776291 126.64,63.45 C127.847216,62.9263023 129.154587,62.6737032 130.47,62.71 C131.782932,62.6806906 133.089464,62.9012741 134.32,63.36 C135.261728,63.7030773 136.108356,64.2652112 136.79,65 C137.290465,65.4998141 137.592501,66.1642926 137.64,66.87 C137.638584,67.1119669 137.532894,67.3415707 137.35,67.5 C137.165577,67.6726652 136.922635,67.7691275 136.67,67.77 L135.48,67.77 C135.060367,67.7875807 134.658094,67.601343 134.4,67.27 C133.653333,66.31 132.346667,65.83 130.48,65.83 C129.54808,65.7887921 128.622281,65.9995152 127.8,66.44 C127.17721,66.7723722 126.791561,67.4241192 126.8,68.13 C126.762046,68.6373003 126.944201,69.1364054 127.3,69.5 C127.737741,69.8667678 128.254637,70.1269275 128.81,70.26 C129.476667,70.4533333 130.663333,70.74 132.37,71.12 C134.04174,71.3628526 135.605952,72.0893421 136.87,73.21 C137.749733,74.1282578 138.228219,75.3586499 138.2,76.63 C138.199286,77.6190499 137.876318,78.5809339 137.28,79.37 C136.592179,80.2540383 135.685677,80.9433933 134.65,81.37 C133.387374,81.9107451 132.023141,82.1733599 130.65,82.14 C129.303574,82.1659707 127.965082,81.9281674 126.71,81.44 C125.713769,81.067609 124.809797,80.4842911 124.06,79.73 C123.516681,79.234905 123.180856,78.5525374 123.12,77.82 C123.121416,77.5780331 123.227106,77.3484293 123.41,77.19 C123.608685,77.0437137 123.854436,76.976043 124.1,77 L125.4,77 C125.598979,76.9714188 125.801021,76.9714188 126,77 C126.199362,77.0730064 126.366058,77.2148755 126.47,77.4 C127.263333,78.5066667 128.666667,79.06 130.68,79.06 C131.723511,79.0880739 132.756674,78.8470026 133.68,78.36 C134.413272,78.0786017 134.913964,77.3940626 134.96,76.61 C134.979864,76.0734557 134.746573,75.5587346 134.33,75.22 C133.787908,74.8129154 133.168695,74.5203201 132.51,74.36 C131.716667,74.1333333 130.48,73.84 128.8,73.48 C125.26,72.76 123.49,70.9833333 123.49,68.15 L123.49,68.15 Z" id="Shape" fill="#3FA3BA"></path>
            <path d="M158.36,81.55 C158.183141,81.7364727 157.937,81.8414444 157.68,81.84 L156.35,81.84 C155.797715,81.84 155.35,81.3922847 155.35,80.84 L155.35,71.34 C155.455056,69.8525799 154.978182,68.3825163 154.02,67.24 C151.909763,65.3646935 148.730237,65.3646935 146.62,67.24 C145.648956,68.3763046 145.164023,69.8490665 145.27,71.34 L145.27,80.84 C145.27,81.3922847 144.822285,81.84 144.27,81.84 L143,81.84 C142.447715,81.84 142,81.3922847 142,80.84 L142,57.25 C142,56.6977153 142.447715,56.25 143,56.25 L144.33,56.25 C144.882285,56.25 145.33,56.6977153 145.33,57.25 L145.33,65.25 C145.912952,64.5073092 146.658823,63.9085592 147.51,63.5 C148.572523,63.0025613 149.737391,62.7627357 150.91,62.8 C152.306637,62.7880934 153.683276,63.1322532 154.91,63.8 C156.078368,64.4429306 157.034007,65.4124697 157.66,66.59 C158.350814,67.9159964 158.694826,69.3952501 158.66,70.89 L158.66,80.89 C158.652274,81.1412639 158.544228,81.3789646 158.36,81.55 L158.36,81.55 Z" id="Shape" fill="#3FA3BA"></path>
            <path d="M166.7,60 C166.523141,60.1864727 166.277,60.2914444 166.02,60.29 L164,60.29 C163.447715,60.29 163,59.8422847 163,59.29 L163,57.25 C163,56.6977153 163.447715,56.25 164,56.25 L166,56.25 C166.552285,56.25 167,56.6977153 167,57.25 L167,59.3 C167.004502,59.5654586 166.895334,59.8201855 166.7,60 L166.7,60 Z M166.34,81.56 C166.163141,81.7464727 165.917,81.8514444 165.66,81.85 L164.33,81.85 C163.777715,81.85 163.33,81.4022847 163.33,80.85 L163.33,64.09 C163.33,63.5377153 163.777715,63.09 164.33,63.09 L165.66,63.09 C166.212285,63.09 166.66,63.5377153 166.66,64.09 L166.66,80.86 C166.655303,81.1248105 166.53911,81.375352 166.34,81.55 L166.34,81.56 Z" id="Shape" fill="#3FA3BA"></path>
            <path d="M181.69,63.11 C182.242285,63.11 182.69,63.5577153 182.69,64.11 L182.69,65.26 C182.69,65.8122847 182.242285,66.26 181.69,66.26 L177.12,66.26 L177.12,80.86 C177.12,81.4122847 176.672285,81.86 176.12,81.86 L174.79,81.86 C174.237715,81.86 173.79,81.4122847 173.79,80.86 L173.79,66.21 L170.79,66.21 C170.237715,66.21 169.79,65.7622847 169.79,65.21 L169.79,64.09 C169.79,63.5377153 170.237715,63.09 170.79,63.09 L173.79,63.09 L173.79,61.29 C173.655915,59.6249504 174.172022,57.9726915 175.23,56.68 C176.458677,55.5795176 178.08621,55.0333898 179.73,55.17 L182,55.17 C182.552285,55.17 183,55.6177153 183,56.17 L183,57.32 C183,57.8722847 182.552285,58.32 182,58.32 L180.09,58.32 C179.207624,58.2100892 178.324323,58.5168423 177.7,59.15 C177.235847,59.8533004 177.014588,60.6891676 177.07,61.53 L177.07,63.15 L181.64,63.15 L181.69,63.11 Z" id="Shape" fill="#3FA3BA"></path>
            <path d="M191.08,88.67 L189.6,88.67 C189.125035,88.67 188.74,88.2849649 188.74,87.81 C188.726899,87.7271816 188.726899,87.6428184 188.74,87.56 L192.24,80 L185.11,64.2 C185.096558,64.1172087 185.096558,64.0327913 185.11,63.95 C185.11,63.4750351 185.495035,63.09 185.97,63.09 L187.45,63.09 C187.935973,63.1260786 188.341583,63.474903 188.45,63.95 L194,76.22 L199.62,64 C199.728417,63.524903 200.134027,63.1760786 200.62,63.14 L202.1,63.14 C202.334934,63.1290608 202.564099,63.2148151 202.734138,63.3772972 C202.904178,63.5397794 203.000255,63.7648112 203,64 C203.012938,64.0828312 203.012938,64.1671688 203,64.25 L192.13,87.81 C192.016441,88.3021793 191.584906,88.6556275 191.08,88.67 L191.08,88.67 Z" id="Shape" fill="#3FA3BA"></path>
        </g>
    </g>
</svg>

<svg id="Layer_1" data-name="Layer 1" xmlns="http://www.w3.org/2000/svg" viewBox="0 0 218 114"><defs><style>.cls-1{fill:#fff;}.cls-2{fill:#3fa3ba;}</style></defs><title>washify-tag</title><rect class="cls-1" width="218" height="114"/><path class="cls-2" d="M65,93.42a1.5,1.5,0,0,1-1.5,1.5h-42a1.5,1.5,0,0,1-1.5-1.5v-47a1.5,1.5,0,0,1,1.5-1.5h42a1.5,1.5,0,0,1,1.5,1.5v47Zm-42-1.5H62v-44H23v44Z"/><path class="cls-2" d="M41.7,59.6a13,13,0,1,1-13,13,13,13,0,0,1,13-13m0-3h0a16,16,0,0,0-16,16h0a16,16,0,0,0,16,16h0a16,16,0,0,0,16-16h0a16,16,0,0,0-16-16h0Z"/><path class="cls-2" d="M41.86,82a9.3,9.3,0,0,1-9.29-9.29,1.5,1.5,0,0,1,3,0A6.3,6.3,0,0,0,41.86,79,1.5,1.5,0,0,1,41.86,82Z"/><path class="cls-2" d="M49.65,74.26a1.5,1.5,0,0,1-1.5-1.5,6.3,6.3,0,0,0-6.29-6.29,1.5,1.5,0,0,1,0-3,9.3,9.3,0,0,1,9.29,9.29A1.5,1.5,0,0,1,49.65,74.26Z"/><path class="cls-2" d="M34.06,54.92H27.7a1.5,1.5,0,0,1,0-3h6.36A1.5,1.5,0,0,1,34.06,54.92Z"/><path class="cls-2" d="M95.23,77.51L98.9,57.61a1.2,1.2,0,0,1,.41-0.74,1.12,1.12,0,0,1,.7-0.23h1.44a0.8,0.8,0,0,1,.79.79l0,0.29L97.78,80a3.56,3.56,0,0,1-.58,1.42,1.43,1.43,0,0,1-1.19.45H94.58a1.44,1.44,0,0,1-1.19-.49A3.83,3.83,0,0,1,92.74,80l-3.31-12L86.12,80a3.83,3.83,0,0,1-.65,1.39,1.44,1.44,0,0,1-1.19.49H82.84a1.43,1.43,0,0,1-1.19-.45A3.54,3.54,0,0,1,81.08,80L76.65,57.71l0-.29a0.8,0.8,0,0,1,.79-0.79h1.44a1.12,1.12,0,0,1,.7.23,1.21,1.21,0,0,1,.41.74l3.67,19.91,4-14.26a1.57,1.57,0,0,1,.36-0.7,1.07,1.07,0,0,1,.86-0.34H90a1.07,1.07,0,0,1,.86.34,1.58,1.58,0,0,1,.36.7Z"/><path class="cls-2" d="M116.2,70V69.52A3.31,3.31,0,0,0,115,66.8a4.66,4.66,0,0,0-3-1,4.38,4.38,0,0,0-2.25.49,5.42,5.42,0,0,0-1.53,1.46,1.17,1.17,0,0,1-.47.4,1.77,1.77,0,0,1-.68.11H106a1,1,0,0,1-.7-0.29,0.8,0.8,0,0,1-.27-0.68,3.81,3.81,0,0,1,1.06-2.14,7.17,7.17,0,0,1,2.54-1.75,8.46,8.46,0,0,1,3.38-.68,7.77,7.77,0,0,1,5.42,1.87,6.72,6.72,0,0,1,2.07,5.26v11a1,1,0,0,1-1,1h-1.33a1,1,0,0,1-1-1V79.39a4.21,4.21,0,0,1-2.45,2.05,9.94,9.94,0,0,1-3.74.76,7.71,7.71,0,0,1-3.28-.67,5.22,5.22,0,0,1-2.21-1.82,4.54,4.54,0,0,1-.77-2.59,5,5,0,0,1,2-4.23,11.9,11.9,0,0,1,5.36-2.07Zm0,2.88-4.25.68a9.73,9.73,0,0,0-3.64,1.17,2.37,2.37,0,0,0-1.3,2,2.11,2.11,0,0,0,.83,1.62,3.76,3.76,0,0,0,2.52.72,6,6,0,0,0,4.21-1.48,5,5,0,0,0,1.62-3.85v-0.9Z"/><path class="cls-2" d="M123.49,68.15a4.87,4.87,0,0,1,.79-2.7,5.51,5.51,0,0,1,2.36-2,9,9,0,0,1,3.83-.74,10.36,10.36,0,0,1,3.85.65A6.32,6.32,0,0,1,136.79,65a2.92,2.92,0,0,1,.85,1.87,0.84,0.84,0,0,1-.29.63,1,1,0,0,1-.68.27h-1.19a1.3,1.3,0,0,1-1.08-.5q-1.12-1.44-3.92-1.44a5.19,5.19,0,0,0-2.68.61,1.89,1.89,0,0,0-1,1.69,1.77,1.77,0,0,0,.5,1.37,3.69,3.69,0,0,0,1.51.76q1,0.29,3.56.86a8.66,8.66,0,0,1,4.5,2.09,4.79,4.79,0,0,1,1.33,3.42,4.55,4.55,0,0,1-.92,2.74,6.44,6.44,0,0,1-2.63,2,9.57,9.57,0,0,1-4,.77,10.32,10.32,0,0,1-3.94-.7,7.38,7.38,0,0,1-2.65-1.71,2.91,2.91,0,0,1-.94-1.91,0.84,0.84,0,0,1,.29-0.63A1,1,0,0,1,124.1,77h1.3A2.11,2.11,0,0,1,126,77a0.89,0.89,0,0,1,.47.4q1.19,1.66,4.21,1.66a6.08,6.08,0,0,0,3-.7,2,2,0,0,0,1.28-1.75,1.71,1.71,0,0,0-.63-1.39,5,5,0,0,0-1.82-.86q-1.19-.34-3.71-0.88Q123.49,72.4,123.49,68.15Z"/><path class="cls-2" d="M158.36,81.55a0.93,0.93,0,0,1-.68.29h-1.33a1,1,0,0,1-1-1v-9.5a5.75,5.75,0,0,0-1.33-4.1,5.57,5.57,0,0,0-7.4,0,5.69,5.69,0,0,0-1.35,4.1v9.5a1,1,0,0,1-1,1H143a1,1,0,0,1-1-1V57.25a1,1,0,0,1,1-1h1.33a1,1,0,0,1,1,1v8a6.16,6.16,0,0,1,2.18-1.75,7.46,7.46,0,0,1,3.4-.7,8.22,8.22,0,0,1,4,1,6.86,6.86,0,0,1,2.75,2.79,8.86,8.86,0,0,1,1,4.3v10A0.94,0.94,0,0,1,158.36,81.55Z"/><path class="cls-2" d="M166.7,60a0.93,0.93,0,0,1-.68.29H164a1,1,0,0,1-1-1V57.25a1,1,0,0,1,1-1H166a1,1,0,0,1,1,1V59.3A0.93,0.93,0,0,1,166.7,60Zm-0.36,21.56a0.93,0.93,0,0,1-.68.29h-1.33a1,1,0,0,1-1-1V64.09a1,1,0,0,1,1-1h1.33a1,1,0,0,1,1,1V80.86A0.94,0.94,0,0,1,166.34,81.55Z"/><path class="cls-2" d="M181.69,63.11a1,1,0,0,1,1,1v1.15a1,1,0,0,1-1,1h-4.57V80.86a1,1,0,0,1-1,1h-1.33a1,1,0,0,1-1-1V66.21h-3a1,1,0,0,1-1-1V64.09a1,1,0,0,1,1-1h3v-1.8a6.46,6.46,0,0,1,1.44-4.61,6,6,0,0,1,4.5-1.51h2.27a1,1,0,0,1,1,1v1.15a1,1,0,0,1-1,1h-1.91a2.86,2.86,0,0,0-2.39.83,3.86,3.86,0,0,0-.63,2.38v1.62h4.57Z"/><path class="cls-2" d="M191.08,88.67h-1.48a0.86,0.86,0,0,1-.86-0.86,0.8,0.8,0,0,1,0-.25L192.24,80l-7.13-15.8a0.78,0.78,0,0,1,0-.25,0.86,0.86,0,0,1,.86-0.86h1.48a1.11,1.11,0,0,1,1,.86L194,76.22,199.62,64a1.11,1.11,0,0,1,1-.86h1.48A0.86,0.86,0,0,1,203,64a0.81,0.81,0,0,1,0,.25L192.13,87.81A1.11,1.11,0,0,1,191.08,88.67Z"/></svg>
